X:611
T: Old Time Wedding, The
Z: Piano Box Version by Martin Fleischmann
H: Created 2014-09-22 /  Last Modified 2014-09-30
R: reel
M: 4/4
L: 1/8
K: Ador
B|: "am"AGEG AGEG | cdcA "G"G2 GB | "am"A2 cd edcG | A2 cd e2 eg |
"am" abag eged |  cAGE "G"c2 cd | edcA GEcE |  "em"D2 EG "am"A2 A2 :|   
g|:"am"ageg agea | "G"gede g2gb | "am"agea g<b ed | "em"cAcd e2 eg |
"am"abag eged |  cAGE "G"c2 cd | "am"edcA GEcE |  "em"D2 EG "am"A2 A2 :|

